findly-builder/apps/searchassist/src/assets/icons/succes_duration.svg

<svg width="12" height="12" viewBox="0 0 12 12" fill="none" xmlns="http://www.w3.org/2000/svg">
<path d="M5.4 0V2.4H6.6V1.3207C8.95951 1.62689 10.8 3.55468 10.8 6C10.8 8.6584 8.6584 10.8 6 10.8C3.3416 10.8 1.2 8.6584 1.2 6C1.2 5.451 1.29128 4.91162 1.47188 4.39922C1.51028 4.29182 1.55927 4.18898 1.60547 4.08398L0.717188 3.17344C0.573188 3.44104 0.442416 3.71518 0.341016 4.00078C0.114816 4.64218 0 5.3148 0 6C0 9.3068 2.6932 12 6 12C9.3068 12 12 9.3068 12 6C12 2.6932 9.3068 0 6 0H5.4ZM2.23359 1.29141L1.37461 2.1293L1.79414 2.55938L5.15859 6.00703L5.57695 6.43594L5.58281 6.43008C5.69453 6.53875 5.84415 6.59969 6 6.6C6.15913 6.6 6.31174 6.53679 6.42426 6.42426C6.53679 6.31174 6.6 6.15913 6.6 6C6.6 5.90705 6.57841 5.81537 6.53692 5.7322C6.49543 5.64902 6.43519 5.57662 6.36094 5.5207L6.01758 5.16914L2.65313 1.72148L2.23359 1.29141Z" fill="#28A745"/>
</svg>

<svg width="12" height="12" fill="none" xmlns="http://www.w3.org/2000/svg"><path d="M5.4 0v2.4h1.2V1.32c2.36.307 4.2 2.235 4.2 4.68A4.79 4.79 0 0 1 6 10.8 4.79 4.79 0 0 1 1.2 6c0-.549.091-1.088.272-1.6.038-.108.087-.211.133-.316l-.888-.91A5.964 5.964 0 0 0 .341 4 6.009 6.009 0 0 0 6 12a6.01 6.01 0 0 0 6-6.001c0-3.307-2.693-6-6-6h-.6ZM2.234 1.291l-.86.838.42.43L5.16 6.007l.418.429.006-.006a.6.6 0 1 0 .778-.91l-.343-.35-3.366-3.45-.42-.43Z" fill="#28A745"/></svg>
